public/img/sql.svg

<svg width="172" height="86" viewBox="0 0 172 86" fill="none" xmlns="http://www.w3.org/2000/svg">
<path fill-rule="evenodd" clip-rule="evenodd" d="M25.8007 64.5617H29.8308V48.5963L36.1247 62.5161C36.8376 64.1893 37.8618 64.809 39.8449 64.809C41.828 64.809 42.791 64.1886 43.5275 62.5161L49.7901 48.5963V64.5617H53.8515V48.5963C53.8515 47.0468 53.231 46.3013 51.9289 45.8982C48.8597 44.9685 46.8134 45.7746 45.8837 47.8507L39.7149 61.6156L33.7622 47.8507C32.8631 45.7746 30.7855 44.9685 27.6858 45.8982C26.4143 46.3013 25.7945 47.0461 25.7945 48.5963L25.7938 64.5617H25.8007ZM57.2062 51.5723H61.2675V60.3461C61.237 60.8415 61.4225 61.9581 63.63 61.988C64.7765 62.0193 72.3725 61.988 72.4336 61.988V51.5098H76.495V65.8638C76.495 69.3978 72.1175 70.1718 70.0774 70.2038H57.3062V67.5078H70.1101C72.7143 67.2285 72.4044 65.927 72.4044 65.4928V64.438H63.8162C59.8167 64.4067 57.243 62.6398 57.2131 60.6247V51.5709L57.2062 51.5723ZM144.321 41.4033C141.842 41.3408 139.919 41.5895 138.307 42.2719C137.843 42.4595 137.098 42.4595 137.037 43.0473C137.285 43.294 137.314 43.6977 137.532 44.0395C137.904 44.66 138.555 45.4959 139.144 45.9295C139.796 46.4263 140.447 46.9217 141.128 47.356C142.337 48.0995 143.701 48.5338 144.878 49.278C145.561 49.7122 146.242 50.2702 146.925 50.7357C147.272 50.9838 147.483 51.3875 147.917 51.5417V51.4479C147.7 51.17 147.638 50.767 147.422 50.4557C147.111 50.1465 146.801 49.8665 146.491 49.5573C145.592 48.3483 144.475 47.2935 143.266 46.4263C142.274 45.744 140.105 44.8143 139.702 43.6678L139.641 43.6053C140.322 43.5427 141.128 43.2947 141.779 43.1085C142.834 42.8305 143.795 42.8917 144.878 42.613C145.375 42.488 145.871 42.3337 146.368 42.1788V41.9008C145.81 41.3429 145.407 40.5987 144.818 40.072C143.237 38.708 141.5 37.3746 139.702 36.2587C138.741 35.6389 137.501 35.2352 136.478 34.7092C136.105 34.523 135.486 34.4299 135.269 34.12C134.709 33.439 134.4 32.5392 133.997 31.7325C133.099 30.0274 132.23 28.1367 131.456 26.3385C130.898 25.1294 130.556 23.9204 129.875 22.8045C126.681 17.5341 123.208 14.3413 117.876 11.2097C116.73 10.5586 115.366 10.2786 113.916 9.93812L111.591 9.81304C111.094 9.59625 110.598 9.00703 110.164 8.7277C108.397 7.61179 103.84 5.19374 102.537 8.38723C101.7 10.4023 103.777 12.386 104.482 13.4095C105.011 14.1224 105.692 14.9285 106.065 15.7345C106.273 16.2612 106.343 16.8198 106.56 17.3778C107.055 18.7418 107.521 20.2614 108.172 21.5329C108.52 22.184 108.884 22.867 109.319 23.4556C109.567 23.796 110.001 23.9517 110.093 24.5096C109.659 25.1301 109.629 26.0591 109.381 26.8353C108.265 30.3387 108.699 34.6786 110.28 37.2509C110.776 38.0257 111.947 39.7315 113.536 39.0798C114.931 38.5218 114.62 36.7548 115.023 35.2046C115.116 34.8329 115.054 34.5848 115.239 34.3361V34.3986L116.511 36.9716C117.472 38.4905 119.146 40.072 120.541 41.1268C121.284 41.6847 121.874 42.6464 122.803 42.9869V42.8931H122.742C122.556 42.6151 122.277 42.49 122.029 42.2733C121.471 41.7153 120.851 41.033 120.417 40.4132C119.115 38.6775 117.969 36.7548 116.945 34.7711C116.448 33.8101 116.014 32.756 115.612 31.795C115.425 31.4226 115.425 30.864 115.116 30.6791C114.65 31.3601 113.969 31.9507 113.627 32.7873C113.037 34.12 112.976 35.7633 112.759 37.4684C112.634 37.4997 112.69 37.4684 112.634 37.531C111.644 37.2836 111.302 36.2594 110.93 35.3922C110 33.191 109.845 29.657 110.651 27.1146C110.867 26.4635 111.798 24.4172 111.427 23.7974C111.239 23.2082 110.621 22.8677 110.279 22.4022C109.876 21.813 109.443 21.0695 109.164 20.4184C108.42 18.6813 108.048 16.7601 107.242 15.0237C106.869 14.2176 106.218 13.3804 105.691 12.6369C105.102 11.7996 104.452 11.2104 103.986 10.2188C103.831 9.87836 103.615 9.3197 103.863 8.94727C103.924 8.69921 104.049 8.6068 104.296 8.54426C104.699 8.20379 105.846 8.63737 106.249 8.8222C107.396 9.28774 108.357 9.72133 109.318 10.3717C109.752 10.6816 110.218 11.2708 110.776 11.4265H111.427C112.42 11.6433 113.535 11.489 114.464 11.7669C116.107 12.295 117.595 13.0691 118.929 13.907C122.99 16.48 126.339 20.1384 128.601 24.5103C128.973 25.2232 129.128 25.8743 129.47 26.6185C130.121 28.1381 130.927 29.6876 131.577 31.1766C132.229 32.6337 132.849 34.1228 133.778 35.3318C134.244 35.9829 136.103 36.3233 136.94 36.6645C137.56 36.9424 138.521 37.1926 139.08 37.533C140.133 38.1841 141.187 38.9283 142.179 39.6412C142.674 40.0122 144.225 40.7877 144.318 41.4061L144.321 41.4033ZM112.706 14.4629C112.278 14.4591 111.851 14.5112 111.436 14.6179V14.6804H111.497C111.745 15.1765 112.179 15.5177 112.489 15.952L113.203 17.4403L113.264 17.3778C113.698 17.0679 113.916 16.5718 113.916 15.8283C113.729 15.6115 113.699 15.394 113.544 15.1772C113.358 14.8673 112.955 14.7117 112.706 14.4643V14.4629Z" fill="#EEEEEE"/>
<path fill-rule="evenodd" clip-rule="evenodd" d="M79.5898 64.5615H91.2464C92.6104 64.5615 93.9132 64.2835 94.9666 63.7867C96.7336 62.9807 97.5709 61.8967 97.5709 60.4702V57.4942C97.5709 56.3477 96.6099 55.2617 94.6887 54.5182C93.6965 54.1465 92.4562 53.929 91.2471 53.929H86.3485C84.7052 53.929 83.9305 53.4322 83.713 52.3482C83.6824 52.2246 83.6824 52.1002 83.6824 51.9765V50.147C83.6824 50.0532 83.6824 49.9302 83.713 49.8065C83.9298 48.9692 84.364 48.7517 85.7975 48.5975H97.7328V45.8994H86.386C84.7427 45.8994 83.8749 45.9932 83.0994 46.2413C80.712 46.9848 79.6579 48.1632 79.6579 50.2394V52.597C79.6579 54.4244 81.7042 55.976 85.1763 56.3477C85.548 56.379 85.9511 56.379 86.3541 56.379H90.5398C90.6947 56.379 90.849 56.379 90.9727 56.4103C92.2442 56.534 92.8022 56.7507 93.1739 57.2149C93.422 57.463 93.4845 57.6804 93.4845 57.9598V60.3153C93.4845 60.5932 93.2983 60.967 92.9266 61.2763C92.5548 61.5855 91.9642 61.8029 91.1895 61.8342C91.0345 61.8342 90.9428 61.8655 90.7865 61.8655H79.5898V64.5615ZM122.805 59.881C122.805 62.6395 124.89 64.189 129.038 64.5003C129.441 64.5316 129.813 64.5615 130.216 64.5615H140.757V61.8655H130.124C127.766 61.8655 126.867 61.2763 126.867 59.8504V45.8994H122.798V59.8817L122.805 59.881ZM100.143 60.004V50.3943C100.143 47.945 101.879 46.456 105.259 45.9918C105.631 45.9606 106.003 45.9293 106.343 45.9293H114.031C114.434 45.9293 114.776 45.9606 115.179 45.9918C118.558 46.456 120.262 47.9443 120.262 50.3943V60.004C120.262 61.9878 119.55 63.0425 117.875 63.7561L121.842 67.3512H117.162L113.938 64.4378L110.682 64.624H106.342C105.547 64.62 104.755 64.5162 103.986 64.3148C101.415 63.6005 100.143 62.2372 100.143 60.004ZM104.514 59.7886C104.514 59.9123 104.583 60.0353 104.608 60.1916C104.824 61.3068 105.878 61.9273 107.49 61.9273H111.149L107.801 58.8888H112.481L115.426 61.5556C115.986 61.245 116.326 60.8107 116.45 60.2528C116.481 60.1291 116.481 59.9748 116.481 59.8497V50.6417C116.481 50.518 116.481 50.395 116.45 50.27C116.233 49.2166 115.18 48.6281 113.598 48.6281H107.49C105.692 48.6281 104.514 49.4028 104.514 50.6417L104.514 59.7886Z" fill="#C5D3E9"/>
</svg>

<svg xmlns="http://www.w3.org/2000/svg" width="172" height="86" fill="none" fill-rule="evenodd" xmlns:v="https://vecta.io/nano"><path d="M25.801 64.562h4.03V48.596l6.294 13.92c.713 1.673 1.737 2.293 3.72 2.293s2.946-.62 3.683-2.293l6.263-13.92v15.965h4.061V48.596c0-1.55-.62-2.295-1.923-2.698-3.069-.93-5.115-.124-6.045 1.953l-6.169 13.765-5.953-13.765c-.899-2.076-2.977-2.882-6.076-1.953-1.271.403-1.891 1.148-1.891 2.698l-.001 15.965h.007zm31.406-12.989h4.061v8.774c-.03.495.155 1.612 2.363 1.642h8.804V51.51h4.061v14.354c0 3.534-4.377 4.308-6.418 4.34H57.306v-2.696H70.11c2.604-.279 2.294-1.581 2.294-2.015v-1.055h-8.588c-4-.031-6.573-1.798-6.603-3.813v-9.054l-.007.001zm87.115-10.169c-2.479-.062-4.402.186-6.014.869-.464.188-1.209.188-1.27.775.248.247.277.65.495.992.372.62 1.023 1.456 1.612 1.89l1.984 1.427c1.209.743 2.573 1.178 3.75 1.922.683.434 1.364.992 2.047 1.458.347.248.558.652.992.806v-.094c-.217-.278-.279-.681-.495-.992l-.931-.898c-.899-1.209-2.016-2.264-3.225-3.131-.992-.682-3.161-1.612-3.564-2.758l-.061-.062c.681-.063 1.487-.311 2.138-.497 1.055-.278 2.016-.217 3.099-.495l1.49-.434v-.278c-.558-.558-.961-1.302-1.55-1.829-1.581-1.364-3.318-2.697-5.116-3.813-.961-.62-2.201-1.023-3.224-1.549-.373-.186-.992-.279-1.209-.589-.56-.681-.869-1.581-1.272-2.387l-2.541-5.394c-.558-1.209-.9-2.418-1.581-3.534-3.194-5.27-6.667-8.463-11.999-11.595-1.146-.651-2.51-.931-3.96-1.272l-2.325-.125c-.497-.217-.993-.806-1.427-1.085-1.767-1.116-6.324-3.534-7.627-.34-.837 2.015 1.24 3.999 1.945 5.022.529.713 1.21 1.519 1.583 2.325.208.527.278 1.085.495 1.643.495 1.364.961 2.884 1.612 4.155.348.651.712 1.334 1.147 1.923.248.34.682.496.774 1.054-.434.62-.464 1.55-.712 2.326-1.116 3.503-.682 7.843.899 10.416.496.775 1.667 2.481 3.256 1.829 1.395-.558 1.084-2.325 1.487-3.875.093-.372.031-.62.216-.868v.063l1.272 2.573c.961 1.519 2.635 3.1 4.03 4.155.743.558 1.333 1.52 2.262 1.86v-.094h-.061c-.186-.278-.465-.403-.713-.62-.558-.558-1.178-1.24-1.612-1.86-1.302-1.736-2.448-3.658-3.472-5.642-.497-.961-.931-2.015-1.333-2.976-.187-.372-.187-.931-.496-1.116-.466.681-1.147 1.272-1.489 2.108-.59 1.333-.651 2.976-.868 4.681-.125.031-.069 0-.125.063-.99-.247-1.332-1.272-1.704-2.139-.93-2.201-1.085-5.735-.279-8.278.216-.651 1.147-2.697.776-3.317-.188-.589-.806-.93-1.148-1.395-.403-.589-.836-1.333-1.115-1.984-.744-1.737-1.116-3.658-1.922-5.395-.373-.806-1.024-1.643-1.551-2.387-.589-.837-1.239-1.427-1.705-2.418-.155-.34-.371-.899-.123-1.272.061-.248.186-.34.433-.403.403-.34 1.55.093 1.953.278 1.147.466 2.108.899 3.069 1.55.434.31.9.899 1.458 1.055h.651c.993.217 2.108.063 3.037.34 1.643.528 3.131 1.302 4.465 2.14 4.061 2.573 7.41 6.231 9.672 10.603.372.713.527 1.364.869 2.108.651 1.52 1.457 3.069 2.107 4.558.652 1.457 1.272 2.946 2.201 4.155.466.651 2.325.992 3.162 1.333.62.278 1.581.528 2.14.869 1.053.651 2.107 1.395 3.099 2.108.495.371 2.046 1.147 2.139 1.765l.003-.003zm-31.615-26.94c-.428-.004-.855.048-1.27.155v.063h.061c.248.496.682.837.992 1.272l.714 1.488.061-.062c.434-.31.652-.806.652-1.549-.187-.217-.217-.434-.372-.651-.186-.31-.589-.465-.838-.713v-.001z" fill="#eee"/><path d="M79.59 64.561h11.657c1.364 0 2.667-.278 3.72-.775 1.767-.806 2.604-1.89 2.604-3.317v-2.976c0-1.146-.961-2.233-2.882-2.976-.992-.372-2.233-.589-3.442-.589h-4.899c-1.643 0-2.418-.497-2.636-1.581-.031-.124-.031-.248-.031-.372v-1.83c0-.094 0-.217.031-.34.217-.837.651-1.055 2.085-1.209h11.935v-2.698H86.386c-1.643 0-2.511.094-3.287.342-2.387.743-3.442 1.922-3.442 3.998v2.358c0 1.827 2.046 3.379 5.518 3.751.372.031.775.031 1.178.031h4.186c.155 0 .309 0 .433.031 1.272.124 1.829.34 2.201.805a.94.94 0 0 1 .311.745v2.355c0 .278-.186.652-.558.961s-.962.527-1.737.558c-.155 0-.247.031-.403.031H79.59v2.696zm43.215-4.68c0 2.758 2.085 4.308 6.233 4.619l1.178.061h10.541v-2.696h-10.633c-2.358 0-3.257-.589-3.257-2.015V45.899h-4.069v13.982l.007-.001zm-22.662.123v-9.61c0-2.449 1.736-3.938 5.116-4.403l1.084-.062h7.688c.403 0 .745.031 1.148.063 3.379.464 5.083 1.953 5.083 4.403v9.61c0 1.984-.712 3.038-2.387 3.752l3.967 3.595h-4.68l-3.224-2.913-3.256.186h-4.34a9.49 9.49 0 0 1-2.356-.309c-2.571-.714-3.843-2.078-3.843-4.311zm4.371-.215c0 .124.069.247.094.403.216 1.115 1.27 1.736 2.882 1.736h3.659l-3.348-3.038h4.68l2.945 2.667c.56-.311.9-.745 1.024-1.303.031-.124.031-.278.031-.403v-9.208c0-.124 0-.247-.031-.372-.217-1.053-1.27-1.642-2.852-1.642h-6.108c-1.798 0-2.976.775-2.976 2.014v9.147z" fill="#c5d3e9"/></svg>
